X:1
T:Gloster Reel. WM.001
M:4/4
L:1/8
Q:1/2=100
S:Wm.Mittell’s MS, New Romney,Kent,1799
R:.Reel
O:England
A:Kent
Z:vmp.Chris Partington
K:G
d2BG dGBG|d2BG cAA2|d2BG dGBG|dgdc BGG2:|!
|:g2eg fadf|gedB cAA2|g2eg fadf|gedc BGG2:|

